X:1
T:5.
%%score { ( 1 2 ) | 3 }
L:1/8
Q:1/4=63
M:3/8
K:F#
V:1 treble nm="Piano" snm="Pno."
V:2 treble 
V:3 bass 
V:1
"^Allegretto M. M."!mf! (C3/2 !tenuto!D/ !tenuto!G/!tenuto!A/ | B3/2!>(! c/ ^^c/d/!>)! | %2
!pp! a/g/d/B/A/G/ | E/F/G/F/d/)z/4D/4 | (C3/2 !tenuto!D/ !tenuto!G/!tenuto!A/ | %5
 B3/2!>(! c/ ^^c/d/!>)! |!pp! a/g/d/B/A/G/ | E/F/A/c/ [Ff]) | %8
 (F3/2"_cresc." !tenuto!G/ !tenuto!c/!tenuto!d/ | F3/2 G/ c/d/ |!f! x3 |!>(! c/B/A/G/F/D/!>)! | %12
!mf! C3/2 D/ G/A/ | B3/2 c/ ^^c/d/ |!pp! a/g/d/B/A/G/ | E/F/A/c/ [Ff]) | (F3/2"_cresc." G/ c/d/ | %17
 F3/2 G/ c/d/ |!f! x3 |!>(! c/B/A/G/F/D/!>)! |!mf! C3/2 D/!>(! G/A/ | B3/2 c/ ^^c/d/!>)! | %22
!pp! a/g/d/B/A/G/ | E/F/A/c/ [Ff]) |] %24
V:2
 z/ E,/- [E,B,]2 | z/ C/- [CE]2 | z z [B,E] | A,2 x | z/ E,/- [E,B,]2 | z/ C/- [CE]2 | z z [B,E] | %7
 A,2 z | z/ A,/- [A,=E]2 | z/ A,/- [A,=E]2 | c/F/D/F,/D/F/ | A,2 z | z/ E,/- [E,B,]2 | %13
 z/!>(! C/- [CE]2!>)! | z z [B,E] | A,2 z | z/ A,/- [A,=E]2 | z/ A,/- [A,=E]2 | c/F/D/F,/D/F/ | %19
 A,2 z | z/ E,/- [E,B,]2 | z/ C/- [CE]2 | z z [B,E] | A,2 x |] %24
V:3
!ped! C,,G,,E, | G,C,B, | d2[K:bass] [C,C]!ped-up! |!ped! [F,C]2 [^B,,G,]!ped-up! |!ped! C,,G,,E, | %5
 G,C,B, | d2[K:bass] [C,C]!ped-up! |!ped! [F,C]3/2 C,/ [F,,A,]!ped-up! |!ped! F,,C,A, | %9
 F,,C,A,!ped-up! |!ped! B,,,B,,F,!ped-up! |!ped! (4:3:4G,,,G,,F,B,!ped-up! |!ped! C,,G,,E, | %13
 G,C,B, | d2[K:bass] [C,C]!ped-up! |!ped! [F,C]3/2 C,/ [F,,A,]!ped-up! |!ped! F,,C,A, | %17
 F,,C,A,!ped-up! |!ped! B,,,B,,F,!ped-up! |!ped! (4:3:4G,,,G,,F,B,!ped-up! |!ped! C,,G,,E, | %21
 G,C,B, | d2[K:bass] [C,C]!ped-up! |!ped! [F,C]3/2 C,/ [F,,A,]!ped-up! |] %24

